modules/themify-icons/icons/zoom-in.svg

<?xml version="1.0" encoding="utf-8"?>
<!-- Generated by IcoMoon.io -->
<!DOCTYPE svg PUBLIC "-//W3C//DTD SVG 1.1//EN" "http://www.w3.org/Graphics/SVG/1.1/DTD/svg11.dtd">
<svg version="1.1" xmlns="http://www.w3.org/2000/svg" xmlns:xlink="http://www.w3.org/1999/xlink" width="17" height="17" viewBox="0 0 17 17">
<g>
</g>
	<path d="M16.604 15.896l-5.173-5.173c0.975-1.137 1.569-2.61 1.569-4.223 0-3.584-2.916-6.5-6.5-6.5-1.737 0-3.369 0.676-4.597 1.904-1.228 1.227-1.903 2.86-1.903 4.596 0 3.584 2.916 6.5 6.5 6.5 1.612 0 3.086-0.594 4.224-1.569l5.173 5.173 0.707-0.708zM6.5 12c-3.033 0-5.5-2.467-5.5-5.5 0-1.47 0.571-2.851 1.61-3.89 1.039-1.038 2.42-1.61 3.89-1.61 3.033 0 5.5 2.467 5.5 5.5 0 3.033-2.467 5.5-5.5 5.5zM7 6h2v1h-2v2h-1v-2h-2v-1h2v-2h1v2z" fill="#000000" />
</svg>

<svg xmlns="http://www.w3.org/2000/svg" width="17" height="17"><path d="M16.604 15.896l-5.173-5.173A6.466 6.466 0 0 0 13 6.5C13 2.916 10.084 0 6.5 0a6.457 6.457 0 0 0-4.597 1.904A6.454 6.454 0 0 0 0 6.5C0 10.084 2.916 13 6.5 13a6.473 6.473 0 0 0 4.224-1.569l5.173 5.173.707-.708zM6.5 12A5.506 5.506 0 0 1 1 6.5c0-1.47.571-2.851 1.61-3.89A5.467 5.467 0 0 1 6.5 1C9.533 1 12 3.467 12 6.5S9.533 12 6.5 12zM7 6h2v1H7v2H6V7H4V6h2V4h1v2z"/></svg>
